Numix-GalliumOS/16/panel/caffeine-cup-full.svg

<?xml version="1.0" encoding="UTF-8" standalone="no"?>
<svg
   xmlns:dc="http://purl.org/dc/elements/1.1/"
   xmlns:cc="http://creativecommons.org/ns#"
   xmlns:rdf="http://www.w3.org/1999/02/22-rdf-syntax-ns#"
   xmlns:svg="http://www.w3.org/2000/svg"
   xmlns="http://www.w3.org/2000/svg"
   xmlns:sodipodi="http://sodipodi.sourceforge.net/DTD/sodipodi-0.dtd"
   xmlns:inkscape="http://www.inkscape.org/namespaces/inkscape"
   width="16"
   height="16"
   viewBox="0 0 16 16"
   id="svg2"
   version="1.1"
   inkscape:version="0.91 r"
   sodipodi:docname="caffeine-cup-full.svg">
  <metadata
     id="metadata59">
    <rdf:RDF>
      <cc:Work
         rdf:about="">
        <dc:format>image/svg+xml</dc:format>
        <dc:type
           rdf:resource="http://purl.org/dc/dcmitype/StillImage" />
      </cc:Work>
    </rdf:RDF>
  </metadata>
  <sodipodi:namedview
     pagecolor="#ffffff"
     bordercolor="#666666"
     borderopacity="1"
     objecttolerance="10"
     gridtolerance="10"
     guidetolerance="10"
     inkscape:pageopacity="0"
     inkscape:pageshadow="2"
     inkscape:window-width="688"
     inkscape:window-height="480"
     id="namedview57"
     showgrid="false"
     inkscape:zoom="10.429825"
     inkscape:cx="4.643242"
     inkscape:cy="13.390496"
     inkscape:window-x="0"
     inkscape:window-y="0"
     inkscape:window-maximized="0"
     inkscape:current-layer="svg2" />
  <defs
     id="defs4" />
  <path
     style="fill:#ececec;fill-opacity:1"
     inkscape:connector-curvature="0"
     id="path45"
     d="m 5.367188,9.941406 3.644531,0 c 1.355469,0 2.457031,0.867188 2.457031,1.9375 0,1.070313 -1.101562,1.9375 -2.457031,1.9375 l -3.644531,0 c -1.355469,0 -2.457032,-0.867187 -2.457032,-1.9375 0,-1.070312 1.101563,-1.9375 2.457032,-1.9375 z" />
  <path
     style="fill:#ececec;fill-opacity:1"
     inkscape:connector-curvature="0"
     id="path47"
     d="m 2.910156,6.574219 8.558594,0 0,5.332031 -8.558594,0 z" />
  <path
     style="fill:#ececec;fill-opacity:1"
     inkscape:connector-curvature="0"
     id="path49"
     d="m 11.035156,7.855469 c 0.46875,0 0.84375,0.160156 1.117188,0.480469 0.269531,0.316406 0.40625,0.753906 0.40625,1.304687 0,0.570313 -0.132813,1.011719 -0.394532,1.324219 -0.261718,0.308594 -0.636718,0.464844 -1.125,0.464844 -0.296874,0 -0.636718,-0.05469 -1.019531,-0.164063 l 0,0.445313 c 0.296875,0.109374 0.660157,0.167968 1.097657,0.167968 0.628906,0 1.117187,-0.195312 1.460937,-0.582031 0.34375,-0.390625 0.511719,-0.945313 0.511719,-1.660156 0,-0.449219 -0.08203,-0.84375 -0.246094,-1.179688 -0.164062,-0.335937 -0.402344,-0.597656 -0.714844,-0.78125 -0.3125,-0.179687 -0.679687,-0.273437 -1.101562,-0.273437 -0.449219,0 -0.839844,0.085937 -1.175782,0.25 l 0.210938,0.4375 c 0.324219,-0.15625 0.648438,-0.234375 0.972656,-0.234375" />
  <path
     style="fill:#ececec;fill-opacity:1"
     inkscape:connector-curvature="0"
     id="path51"
     d="M 4.753906,2.1875 C 4.765625,2.152344 4.292969,2.316406 4.015625,2.460938 3.878906,2.53125 3.574219,2.765625 3.492188,2.855469 3.410156,2.949219 3.339844,3.054688 3.289062,3.164062 3.242188,3.269531 3.203125,3.390625 3.199219,3.503906 3.191406,3.621094 3.207031,3.746094 3.25,3.855469 3.296875,3.96875 3.382812,4.074219 3.46875,4.167969 3.554688,4.269531 3.671875,4.351562 3.769531,4.441406 3.867188,4.53125 3.976562,4.613281 4.046875,4.71875 4.121094,4.820312 4.179688,4.9375 4.203125,5.054688 4.230469,5.160156 4.21875,5.277344 4.199219,5.386719 4.175781,5.492188 4.136719,5.601562 4.078125,5.695312 4.015625,5.800781 3.9375,5.898438 3.84375,5.980469 3.742188,6.074219 3.480469,6.1875 3.492188,6.222656 3.5,6.253906 3.898438,6.132812 4.027344,6.085938 4.140625,6.042969 4.441406,5.898438 4.535156,5.828125 4.625,5.761719 4.71875,5.691406 4.792969,5.609375 4.859375,5.53125 4.929688,5.441406 4.957031,5.347656 4.988281,5.242188 4.984375,5.125 4.964844,5.019531 4.941406,4.902344 4.890625,4.785156 4.828125,4.675781 4.769531,4.566406 4.6875,4.46875 4.605469,4.371094 4.523438,4.269531 4.429688,4.175781 4.335938,4.085938 4.25,3.992188 4.136719,3.914062 4.0625,3.816406 3.988281,3.714844 3.902344,3.601562 3.882812,3.484375 3.863281,3.375 3.902344,3.253906 3.945312,3.144531 3.988281,3.035156 4.066406,2.929688 4.144531,2.832031 4.214844,2.738281 4.3125,2.660156 4.394531,2.574219 4.515625,2.445312 4.722656,2.273438 4.753906,2.1875 z" />
  <path
     style="fill:#ececec;fill-opacity:1"
     inkscape:connector-curvature="0"
     id="path53"
     d="M 7.429688,2.1875 C 7.441406,2.152344 6.96875,2.316406 6.691406,2.460938 6.554688,2.53125 6.246094,2.765625 6.167969,2.855469 6.085938,2.949219 6.015625,3.054688 5.964844,3.164062 5.917969,3.269531 5.878906,3.390625 5.875,3.503906 5.867188,3.621094 5.882812,3.746094 5.925781,3.855469 5.972656,3.96875 6.058594,4.074219 6.140625,4.167969 6.230469,4.269531 6.347656,4.351562 6.445312,4.441406 6.542969,4.53125 6.652344,4.613281 6.722656,4.71875 6.796875,4.820312 6.851562,4.9375 6.878906,5.054688 6.902344,5.160156 6.894531,5.277344 6.875,5.386719 6.851562,5.492188 6.8125,5.601562 6.753906,5.695312 6.691406,5.800781 6.613281,5.898438 6.519531,5.980469 6.417969,6.074219 6.15625,6.1875 6.164062,6.222656 6.175781,6.253906 6.574219,6.132812 6.703125,6.085938 6.816406,6.042969 7.113281,5.898438 7.210938,5.828125 7.300781,5.761719 7.394531,5.691406 7.46875,5.609375 7.535156,5.53125 7.605469,5.441406 7.632812,5.347656 7.664062,5.242188 7.660156,5.125 7.640625,5.019531 7.617188,4.902344 7.566406,4.785156 7.503906,4.675781 7.445312,4.566406 7.363281,4.46875 7.28125,4.371094 7.199219,4.269531 7.105469,4.175781 7.011719,4.085938 6.921875,3.992188 6.8125,3.914062 6.738281,3.816406 6.660156,3.714844 6.578125,3.601562 6.558594,3.484375 6.539062,3.375 6.578125,3.253906 6.621094,3.144531 6.664062,3.035156 6.742188,2.929688 6.820312,2.832031 6.890625,2.738281 6.988281,2.660156 7.070312,2.574219 7.191406,2.445312 7.398438,2.273438 7.429688,2.1875 z" />
  <path
     style="fill:#ececec;fill-opacity:1"
     inkscape:connector-curvature="0"
     id="path55"
     d="M 10.105469,2.1875 C 10.117188,2.152344 9.644531,2.316406 9.367188,2.460938 9.230469,2.53125 8.921875,2.765625 8.84375,2.855469 8.761719,2.949219 8.691406,3.054688 8.640625,3.164062 8.59375,3.269531 8.554688,3.390625 8.546875,3.503906 8.542969,3.621094 8.554688,3.746094 8.601562,3.855469 8.644531,3.96875 8.730469,4.074219 8.816406,4.167969 8.90625,4.269531 9.023438,4.351562 9.121094,4.441406 9.21875,4.53125 9.328125,4.613281 9.398438,4.71875 9.472656,4.820312 9.527344,4.9375 9.554688,5.054688 9.578125,5.160156 9.570312,5.277344 9.550781,5.386719 9.527344,5.492188 9.484375,5.601562 9.429688,5.695312 9.367188,5.800781 9.289062,5.898438 9.195312,5.980469 9.089844,6.074219 8.828125,6.1875 8.839844,6.222656 8.851562,6.253906 9.25,6.132812 9.378906,6.085938 9.492188,6.042969 9.789062,5.898438 9.886719,5.828125 9.976562,5.761719 10.070312,5.691406 10.140625,5.609375 10.210938,5.53125 10.28125,5.441406 10.308594,5.347656 10.335938,5.242188 10.335938,5.125 10.316406,5.019531 10.292969,4.902344 10.238281,4.785156 10.179688,4.675781 10.121094,4.566406 10.039062,4.46875 9.957031,4.371094 9.875,4.269531 9.78125,4.175781 9.6875,4.085938 9.597656,3.992188 9.488281,3.914062 9.414062,3.816406 9.335938,3.714844 9.253906,3.601562 9.234375,3.484375 9.214844,3.375 9.253906,3.253906 9.292969,3.144531 9.339844,3.035156 9.417969,2.929688 9.496094,2.832031 9.566406,2.738281 9.664062,2.660156 9.746094,2.574219 9.867188,2.445312 10.074219,2.273438 10.105469,2.1875 z" />
</svg>

<svg xmlns="http://www.w3.org/2000/svg" viewBox="0 0 16 16">
 <path d="m 5.367 9.941 3.645 0 c 1.355 0 2.457 0.867 2.457 1.938 0 1.07 -1.102 1.938 -2.457 1.938 l -3.645 0 c -1.355 0 -2.457 -0.867 -2.457 -1.938 0 -1.07 1.102 -1.938 2.457 -1.938 z" style="fill:#ececec;fill-opacity:1"/>
 <path d="m 2.91 6.574 8.559 0 0 5.332 -8.559 0 z" style="fill:#ececec;fill-opacity:1"/>
 <path d="m 11.04 7.855 c 0.469 0 0.844 0.16 1.117 0.48 0.27 0.316 0.406 0.754 0.406 1.305 0 0.57 -0.133 1.012 -0.395 1.324 -0.262 0.309 -0.637 0.465 -1.125 0.465 -0.297 0 -0.637 -0.055 -1.02 -0.164 l 0 0.445 c 0.297 0.109 0.66 0.168 1.098 0.168 0.629 0 1.117 -0.195 1.461 -0.582 0.344 -0.391 0.512 -0.945 0.512 -1.66 0 -0.449 -0.082 -0.844 -0.246 -1.18 -0.164 -0.336 -0.402 -0.598 -0.715 -0.781 -0.313 -0.18 -0.68 -0.273 -1.102 -0.273 -0.449 0 -0.84 0.086 -1.176 0.25 l 0.211 0.437 c 0.324 -0.156 0.648 -0.234 0.973 -0.234" style="fill:#ececec;fill-opacity:1"/>
 <path d="m 4.754 2.188 c 0.012 -0.035 -0.461 0.129 -0.738 0.273 -0.137 0.07 -0.441 0.305 -0.523 0.395 -0.082 0.094 -0.152 0.199 -0.203 0.309 -0.047 0.105 -0.086 0.227 -0.09 0.34 -0.008 0.117 0.008 0.242 0.051 0.352 0.047 0.113 0.133 0.219 0.219 0.313 0.086 0.102 0.203 0.184 0.301 0.273 0.098 0.09 0.207 0.172 0.277 0.277 0.074 0.102 0.133 0.219 0.156 0.336 0.027 0.105 0.016 0.223 -0.004 0.332 -0.023 0.105 -0.063 0.215 -0.121 0.309 -0.063 0.105 -0.141 0.203 -0.234 0.285 -0.102 0.094 -0.363 0.207 -0.352 0.242 0.008 0.031 0.406 -0.09 0.535 -0.137 0.113 -0.043 0.414 -0.188 0.508 -0.258 0.09 -0.066 0.184 -0.137 0.258 -0.219 0.066 -0.078 0.137 -0.168 0.164 -0.262 0.031 -0.105 0.027 -0.223 0.008 -0.328 -0.023 -0.117 -0.074 -0.234 -0.137 -0.344 -0.059 -0.109 -0.141 -0.207 -0.223 -0.305 -0.082 -0.102 -0.176 -0.195 -0.27 -0.285 -0.086 -0.094 -0.199 -0.172 -0.273 -0.27 -0.074 -0.102 -0.16 -0.215 -0.18 -0.332 -0.02 -0.109 0.02 -0.23 0.063 -0.34 0.043 -0.109 0.121 -0.215 0.199 -0.313 0.07 -0.094 0.168 -0.172 0.25 -0.258 0.121 -0.129 0.328 -0.301 0.359 -0.387 z" style="fill:#ececec;fill-opacity:1"/>
 <path d="m 7.43 2.188 c 0.012 -0.035 -0.461 0.129 -0.738 0.273 -0.137 0.07 -0.445 0.305 -0.523 0.395 -0.082 0.094 -0.152 0.199 -0.203 0.309 -0.047 0.105 -0.086 0.227 -0.09 0.34 -0.008 0.117 0.008 0.242 0.051 0.352 0.047 0.113 0.133 0.219 0.215 0.313 0.09 0.102 0.207 0.184 0.305 0.273 0.098 0.09 0.207 0.172 0.277 0.277 0.074 0.102 0.129 0.219 0.156 0.336 0.023 0.105 0.016 0.223 -0.004 0.332 -0.023 0.105 -0.063 0.215 -0.121 0.309 -0.063 0.105 -0.141 0.203 -0.234 0.285 -0.102 0.094 -0.363 0.207 -0.355 0.242 0.012 0.031 0.41 -0.09 0.539 -0.137 0.113 -0.043 0.41 -0.188 0.508 -0.258 0.09 -0.066 0.184 -0.137 0.258 -0.219 0.066 -0.078 0.137 -0.168 0.164 -0.262 0.031 -0.105 0.027 -0.223 0.008 -0.328 -0.023 -0.117 -0.074 -0.234 -0.137 -0.344 -0.059 -0.109 -0.141 -0.207 -0.223 -0.305 -0.082 -0.102 -0.176 -0.195 -0.27 -0.285 -0.09 -0.094 -0.199 -0.172 -0.273 -0.27 -0.078 -0.102 -0.16 -0.215 -0.18 -0.332 -0.02 -0.109 0.02 -0.23 0.063 -0.34 0.043 -0.109 0.121 -0.215 0.199 -0.313 0.07 -0.094 0.168 -0.172 0.25 -0.258 0.121 -0.129 0.328 -0.301 0.359 -0.387 z" style="fill:#ececec;fill-opacity:1"/>
 <path d="m 10.11 2.188 c 0.012 -0.035 -0.461 0.129 -0.738 0.273 -0.137 0.07 -0.445 0.305 -0.523 0.395 -0.082 0.094 -0.152 0.199 -0.203 0.309 -0.047 0.105 -0.086 0.227 -0.094 0.34 -0.004 0.117 0.008 0.242 0.055 0.352 0.043 0.113 0.129 0.219 0.215 0.313 0.09 0.102 0.207 0.184 0.305 0.273 0.098 0.09 0.207 0.172 0.277 0.277 0.074 0.102 0.129 0.219 0.156 0.336 0.023 0.105 0.016 0.223 -0.004 0.332 -0.023 0.105 -0.066 0.215 -0.121 0.309 -0.063 0.105 -0.141 0.203 -0.234 0.285 -0.105 0.094 -0.367 0.207 -0.355 0.242 0.012 0.031 0.41 -0.09 0.539 -0.137 0.113 -0.043 0.41 -0.188 0.508 -0.258 0.09 -0.066 0.184 -0.137 0.254 -0.219 0.07 -0.078 0.141 -0.168 0.168 -0.262 0.027 -0.105 0.027 -0.223 0.008 -0.328 -0.023 -0.117 -0.078 -0.234 -0.137 -0.344 -0.059 -0.109 -0.141 -0.207 -0.223 -0.305 -0.082 -0.102 -0.176 -0.195 -0.27 -0.285 -0.09 -0.094 -0.199 -0.172 -0.273 -0.27 -0.078 -0.102 -0.16 -0.215 -0.18 -0.332 -0.02 -0.109 0.02 -0.23 0.059 -0.34 0.047 -0.109 0.125 -0.215 0.203 -0.313 0.07 -0.094 0.168 -0.172 0.25 -0.258 0.121 -0.129 0.328 -0.301 0.359 -0.387 z" style="fill:#ececec;fill-opacity:1"/>
</svg>
